X:033
T:The Battle of Sherrifmuir
T:Here's a Health To Them Far Awa'
D:Billy Jackson & John Martin: The Braes of Lochiel
Z:Nigel Gatherer
M:6/8
L:1/8
K:A
E|A>GF FEF|A3 A2B|c>BA dcd|e3 e2a|c'ba agf|e>dc def|
edc BAB|A3 A2::c|edc BAB|A3 A2c|edc def|e3 e2a|
c'ba agf|e>dc def|edc BAB|A3 A2::e|a>ec a>ec|e3 efg|
agf edc|B3 B2a|c'ba agf|e>dc def|edc BAB|A3 A2:|
